communes/84.svg

<?xml version="1.0" encoding="UTF-8" standalone="no"?>
<!-- Created with Inkscape (http://www.inkscape.org/) -->
<svg
   xmlns:svg="http://www.w3.org/2000/svg"
   xmlns="http://www.w3.org/2000/svg"
   version="1.0"
   width="222.98642"
   height="261.19394"
   id="svg2780">
  <defs
     id="defs2782" />
  <g
     transform="translate(-1.9315051,-791.16833)"
     id="layer1">
    <path
       d="M 2.9315051,792.16833 L 6.9494356,960.94572 C 9.8193783,1081.5011 217.03003,1081.5011 219.89999,960.94572 L 223.91792,792.16833 L 2.9315051,792.16833 z"
       id="path3282"
       style="fill:#de4229;fill-opacity:1;fill-rule:evenodd;stroke:#000000;stroke-width:2;stroke-linecap:butt;stroke-miterlimit:4;stroke-dashoffset:0;stroke-opacity:1" />
    <path
       d="M 59.59375,835.14319 L 59.59375,1021.6744 L 86.03125,1002.4869 L 86.03125,861.58069 L 169.03523,861.58069 L 189.16941,835.14319 L 59.59375,835.14319 z"
       id="path7706"
       style="fill:#ffffff;fill-opacity:1;fill-rule:evenodd;stroke:#000000;stroke-width:1px;stroke-linecap:butt;stroke-linejoin:miter;stroke-opacity:1" />
  </g>
</svg>

<?xml version="1.0" encoding="UTF-8"?>
<svg version="1.0" viewBox="0 0 222.99 261.19" xmlns="http://www.w3.org/2000/svg">
<g transform="translate(-1.9315 -791.17)" fill-rule="evenodd" stroke="#000">
<path d="m2.9315 792.17 4.0179 168.78c2.8699 120.56 210.08 120.56 212.95 0l4.0179-168.78h-220.99z" fill="#de4229" stroke-width="2"/>
<path d="m59.594 835.14v186.53l26.438-19.188v-140.91h83.004l20.134-26.438h-129.58z" fill="#fff" stroke-width="1px"/>
</g>
</svg>
